X: 586
T: Gandzia Polka
B: jims roots
M:2/4
L:1/8
Q: 1/4=100
K:Dm
V:1 
%england
"Dm"[F2d2a2]"Gm"[G2d2b2] |"A"[A2^c2e2]"A"[A2c2a2] || "Dm"A/f/f/e/ e/d/d/A/ | "Gm"cB/>c/ B/A/B | "A"^G/A/^c/e/ a>g |
"Dm"gf/>g/ f/e/f | A/f/f/e/ e/d/d/A/ | "Gm"cB/>c/ B/A/B |"A7"A/A/^c/e/ a/g/f/e/ | "Dm"df [Fd] z2|]
|:"C7"c/d/e/f/ gb | "F"ba/>b/ a/^g/a | "C7"ag/>a/ g/^f/g | "F"gf/>g/ f/e/f |
"A7"A/=B/^c/d/ eg | "Dm"gf/>g/ f/e/f | "A7"^G/A/^c/e/ a^c | "Dm"d/>e/d/>^c/ d2:|
|:"F"c/d/c/=B/ cA | c/A/c/f/ a2 | "C7"a/g/g/b/ e2 | "F"g/f/f/a/ c2 |
c/d/c/=B/ cA | c/A/c/f/ a2 | "C7"a/g/g/b/ de | "F"f/>g/f/>e/ f2:|]
% abcbook-tune_id 6298c25da3d50e2cf59025ce


% abcbook-boost 0
% abcbook-tablature 
% abcbook-transpose 
% abcbook-lastupdated 1654178398153
% abcbook-soundfonts 
% abcbook-repeats 1


